src/assets/img/icons/dark/icon-different-arrow.svg

<svg width="42" height="42" viewBox="0 0 42 42" fill="none" xmlns="http://www.w3.org/2000/svg">
<path d="M23.5358 30.0846C22.7324 30.3115 21.8833 30.4336 21 30.4336C15.7899 30.4336 11.5664 26.2101 11.5664 21C11.5664 15.7899 15.7899 11.5664 21 11.5664C21.8833 11.5664 22.7324 11.6885 23.5358 11.9154C19.5648 13.028 16.6523 16.6737 16.6523 21C16.6523 25.3263 19.5648 28.9721 23.5358 30.0846ZM6.5625 21C6.5625 11.1418 13.931 3.00464 23.4609 1.79566C22.6551 1.69337 21.8337 1.64062 21 1.64062C10.3081 1.64062 1.64062 10.3081 1.64062 21C1.64062 31.6919 10.3081 40.3594 21 40.3594C21.8337 40.3594 22.6551 40.3066 23.4609 40.2044C13.931 38.9954 6.5625 30.8582 6.5625 21Z" fill="#565656"/>
<path d="M21 42C15.3907 42 10.1172 39.8156 6.1507 35.8493C2.18441 31.8829 0 26.6093 0 21C0 15.3907 2.18441 10.1172 6.1507 6.1507C10.1172 2.18441 15.3907 0 21 0C27.7531 0 34.1382 3.25951 38.0802 8.71927C38.6105 9.45394 38.445 10.4794 37.7103 11.0098C36.9758 11.5402 35.9503 11.3746 35.4198 10.64C32.093 6.03225 26.7024 3.28125 21 3.28125C11.2298 3.28125 3.28125 11.2299 3.28125 21C3.28125 30.7701 11.2298 38.7188 21 38.7188C26.7024 38.7188 32.093 35.9678 35.4198 31.3599C35.9503 30.6253 36.9758 30.4597 37.7103 30.9901C38.445 31.5205 38.6105 32.546 38.0802 33.2807C34.1382 38.7405 27.7531 42 21 42ZM28.905 28.704C29.5354 28.0531 29.5188 27.0145 28.868 26.384C28.217 25.7536 27.1785 25.7703 26.5481 26.4211C25.0666 27.9506 23.0963 28.793 21 28.793C16.703 28.793 13.207 25.297 13.207 21C13.207 16.703 16.703 13.207 21 13.207C23.0963 13.207 25.0666 14.0494 26.5481 15.579C27.1785 16.2298 28.2172 16.2464 28.868 15.616C29.5189 14.9856 29.5354 13.947 28.905 13.2961C26.7999 11.1227 23.9925 9.92578 21 9.92578C14.8937 9.92578 9.92578 14.8937 9.92578 21C9.92578 27.1063 14.8937 32.0742 21 32.0742C23.9926 32.0742 26.8 30.8773 28.905 28.704Z" fill="white"/>
<path d="M39.5788 22.6685C39.1301 22.2223 38.8828 21.6298 38.8828 21C38.8828 20.3703 39.1301 19.7778 39.5788 19.3315L41.516 17.4057C42.1586 16.7669 42.1617 15.7281 41.5228 15.0856C40.884 14.4429 39.845 14.4399 39.2026 15.0787L37.2655 17.0045C36.5934 17.6727 36.1106 18.4791 35.8435 19.3595H21C20.0939 19.3595 19.3594 20.094 19.3594 21.0001C19.3594 21.9062 20.0939 22.6407 21 22.6407H35.8435C36.1106 23.5211 36.5934 24.3275 37.2655 24.9957L39.2026 26.9214C39.5228 27.2396 39.941 27.3985 40.3594 27.3985C40.7808 27.3985 41.2022 27.237 41.5229 26.9145C42.1618 26.2719 42.1586 25.2331 41.5161 24.5943L39.5788 22.6685Z" fill="#D34214"/>
</svg>

<svg xmlns="http://www.w3.org/2000/svg" width="42" height="42" fill="none"><path fill="#565656" d="M23.54 30.08a9.43 9.43 0 110-18.17 9.44 9.44 0 000 18.17zM6.56 21c0-9.86 7.37-18 16.9-19.2a19.36 19.36 0 100 38.4A19.36 19.36 0 016.56 21z"/><path fill="#fff" d="M21 42c-5.6 0-10.88-2.18-14.85-6.15A20.86 20.86 0 010 21c0-5.6 2.18-10.88 6.15-14.85A20.86 20.86 0 0121 0c6.75 0 13.14 3.26 17.08 8.72a1.64 1.64 0 01-2.66 1.92A17.74 17.74 0 003.28 21a17.74 17.74 0 0032.14 10.36 1.64 1.64 0 012.66 1.92A21.11 21.11 0 0121 42zm7.9-13.3a1.64 1.64 0 00-2.35-2.28A7.67 7.67 0 0121 28.8a7.8 7.8 0 010-15.58c2.1 0 4.07.84 5.55 2.37a1.64 1.64 0 002.36-2.28A10.93 10.93 0 0021 9.93C14.9 9.93 9.93 14.89 9.93 21c0 6.1 4.96 11.07 11.07 11.07 3 0 5.8-1.2 7.9-3.37z"/><path fill="#D34214" d="M39.58 22.67a2.34 2.34 0 010-3.34l1.94-1.92a1.64 1.64 0 10-2.32-2.33L37.27 17a5.61 5.61 0 00-1.43 2.36H21a1.64 1.64 0 100 3.28h14.84c.27.88.75 1.69 1.43 2.36l1.93 1.92a1.64 1.64 0 002.32 0c.64-.65.64-1.69 0-2.33l-1.94-1.92z"/></svg>
